!!!OTL: 392. Maienzeit.
!!!ARE: Europa, Mitteleuropa, Deutschland
!!!SCT: E0392
!!!TXL: @@DE
!!!YEM: Copyright 1995, estate of Helmut Schaffrath.
**kern	**text
*ICvox	*
*M4/4	*
*met(c)	*
*k[b-]	*
*F:	*
!LO:TX:a:t=M. Franck 1611.	!
!LO:N:vis=2	!
{4cc	Die
=1	=1
4.cc	lie-
8a	-be
4b-/	Mai-
4a	-en-
=2	=2
2g}	-ʒeit
{2cc	mein
=3	=3
4.cc	gan-
8a	-ʒes
4b-/	Herʒ
4a	er-
=4	=4
2g	-freut;
4r}	.
{4g	wenn
=5	=5
4.g	ich
8g	nur
4g	thu
4a	an-
=6	=6
2f	-ſchau-
4f}	-en
{4e	die
=7	=7
4.f	Blüm-
8f	-lein
4g	auf
4a	der
=8	=8
2b-	Au-
4a}	-en,
{4a	und
=9	=9
4.b-	hör
8b-	die
4a	Vö-
4g	-gel
=10	=10
2f#	ſin-
4g}	-gen,
{4g	wie
=11	=11
4a	es
4b-	ſo
4cc	ſchön
4f	thut
=12	=12
2g	klin-
!LO:N:vis=2	!
4f;}	-gen.
==	==
!!!AGN: Liebes - Lied, Jahreszeiten, Fruehling
!!!ONB: ESAC (Essen Associative Code) Database: ERK1
!!!AMT: simple quadruple
!!!AIN: vox
!!!EED: Helmut Schaffrath
!!!EEV: 1.0
!!!GTL: Liebeslieder [Alte (aus dem 13. bis 17. Jahrh.) mit ihrem jungen Nachwuchs]
!!!URL-scan: https://rosdok.uni-rostock.de/mcrviewer/recordIdentifier/rosdok_ppn745177662/iview2/phys_0207.iview2?x=-2295.2751196172253&y=-122.52822967246175&scale=0.23831242873432154&rotation=0&layout=singlePageLayout
!!!ENC: Anna Maria Matuszewska
!!!EEV: 2024/09/12
*-	*-
